X:1
T:Drunk Last Night
M:6/8
L:1/4
K:F
 F3/2 F3/2| C3| F F/2 F F/2| C3| G/2G/2G/2 G F/2| G3/2 F G/2| A/2A/2A/2 A G/2|\
 F3/2 A3/2| B3/2 B3/2| D3/2 B B/2| A A/2 A G/2| F3/2- F A/2| G3/2 G G/2|\
 G G/2 A =B/2| c3/2 C C/2| C3/2 C C/2| F3/2 F F/2| F3/2 G F/2| G3/2 C C/2|\
 C3/2- C A/2| c/2 c2 A/2| c/2 c2 B/2| A3/2 F F/2| F3/2 C C/2| F F/2 F3/2|\
 F3/2 G F/2| E C/2 C3/2| C3/2- C C/2| G G/2 G3/2| G3/2 c B/2| A3/2 F3/2|\
 F3/2 C3/2| F3/2- F C/2| C3/2 A3/2| G3/2- G C/2| C3/2- C z/2| G3/2 G G/2|\
 G3/2 c B/2| A3/2- A G/2| F3/2 A3/2| B B/2 B B/2| D3/2 B B/2| A A/2 A G/2|\
 F3/2 A3/2| G G/2 G F/2| E E/2 F G/2| F3-| F3/2 z z/2|

